!!!SOCIAL_FUNCTION:	songs of war
!!!PDT:	1918

Specific Region: Dakotas, Minnesota, Montana, Nebraska
!!!REG: Dakotas and Montana
!!!LING_GROUP: Siouan
!!!LANG: Tone
!!!OTL@ENG: At the Wind Center I Stand
!!!ONM: No. 137
**kern
*Imale
*clefF4
*M3/4
*MM80
4e
4.e
8d
=2
12e
12d
12e
2c
=3
12A
12A
12d
4.c
8A
=4
12c
12A
12c
4G
4G
=5||
*M2/4
8G
8G
4E
=6
4E
4G
=7||
*M3/4
12c
12A
12c
2G
=8||
*M2/4
16G
8.G
16E
8.E
=9
8E
8E
4E
=10||
*M3/4
[2E
8.E]
16E
=11||
*M2/4
*MM88
4.E
8E
=12
8e
8e
8e
8e
=13
8d
8d
8e
8d
=14
2c
=15
12c
12c
12c
[4A
=16
4A]
4A
=17||
*M3/4
4d
8d
8d
(8d
8c)
=18||
*M2/4
8A
16A
16A
8c
8A
=19
2G
=20
12G
12G
12G
4E
=21
4E
8G
8G
=22||
*M3/4
8A
8c
4A
8G
8G
=23||
*M2/4
8A
8c
4G
=24
8E
8E
8E
8E
=25||
*M3/4
8G
8E
2E
=26
2.E
=27
4E
2r
==
*-
!!!CNT: Native American -- Sioux
!!!MRD: 1911/07//-1914///
!!!OCL: Frances Densmore
!!!YOR1: Teton Sioux Music, Bulletin 61,
!!!YOR2: Bureau of American Ethnology, Smithsonian Institution
!!!PPR: Government Printing Office
!!!PPP: Washington, D.C.
!!!PDT: 1918///
!!!ENC: Craig Stuart Sapp
!!!END: 2002/03/25/
!!!EEV: 2002/03/31/
!!!AGN: War Song/Song of a Typical War Expedition
!!!MPN@@SIO: Mato'wangbli'
!!!MPN@ENG: Bear Eagle
!!!TXO: Teton Sioux
!!!MLC: Standing Rock Reservation, South Dakota, United States of America
!!!ARL: 45.9/-100.7#
!!!catalog: Catalogue No. 635
!!!PPG: 352
!!!EFL: 141/245
!!!VTS: 95588247
